!!!COM:	Busnoys, Antoine
!!!CDT:	~1430///-1492/11/06
!!!OTL:	Une filleresse d'estouppes / Sil y a compagnon / Vostre amour
!!!AGN:	Song; Chanson
!!!SCT:	Bus3057
!!!SCA:	Bus3057
!!!voices:	4
**kern	**kern	**kern	**kern
*staff4	*staff3	*staff2	*staff1
*Ivox	*Ivox	*Ivox	*Ivox
*I"Contratenor 2	*I"Tenor	*I"Contratenor 1	*I"Superius
*I'Ct2	*I'T	*I'Ct1	*I'S
*clefGv2	*clefG2	*clefG2	*clefG2
*k[b-]	*k[]	*k[]	*k[b-]
*M2/1	*M2/1	*M2/1	*M2/1
*met(C|)	*met(C|)	*met(C|)	*met(C|)
=1-	=1-	=1-	=1-
!	!LO:TX:Y=24:t=Vostre amour	!LO:TX:Y=24:t=S'il y a compagnon en la compagnie	!LO:TX:Z=12:X=-40:t=Rondeau?
0d	0r	0a	0dd
=2	=2	=2	=2
1c	0r	1a	1ee
1d	.	1f	[1dd
=3	=3	=3	=3
0e	0r	0g	1dd]
.	.	.	1cc#i
=4	=4	=4	=4
0d	1d	0a	0dd
.	1f	.	.
=5	=5	=5	=5
1r	1e	0b	0g
1Bni	1d	.	.
=6	=6	=6	=6
[0A	1.a	0cc	0r
.	2g	.	.
=7	=7	=7	=7
1A]	1e	1.cc	1a
1A	1f	.	1cc
.	.	4b	.
.	.	4a	.
=8	=8	=8	=8
1B-	1d	1g	1b-
1c	1c	1a	[1a
=9	=9	=9	=9
1A	0r	1cc	1a]
1G	.	[1b	1dd
=10	=10	=10	=10
0A	0r	2b]	1cc
.	.	2a	.
.	.	[1a	1a
=11	=11	=11	=11
0B-	0r	1a]	1.dd
.	.	1g	.
.	.	.	4cc
.	.	.	4b-
=12	=12	=12	=12
2A	0r	0a	2cc
2.c	.	.	2.ee
4B-	.	.	4dd
4A	.	.	4cc
4G	.	.	4b-
=13	=13	=13	=13
2F	1d	0r	2a
1G	.	.	1b-
.	1e	.	.
4F	.	.	4a
4E	.	.	4g
=14	=14	=14	=14
2D	1f	0r	2f
2d	.	.	1ff
2B-	1g	.	.
2c	.	.	2ee
=15	=15	=15	=15
0d	1.f	0r	2.ff
.	.	.	4ee
.	.	.	2dd
.	4e	.	4cc
.	4d	.	4b-
=16	=16	=16	=16
0A	1e	0a	2cc
.	.	.	1dd
.	1e	.	.
.	.	.	2cc#i
=17	=17	=17	=17
0f	0d	1a	1dd
.	.	1f	1r
=18	=18	=18	=18
0e-	0r	0g	0cc
=19	=19	=19	=19
0d	1d	0a	1dd
.	1f	.	1dd
=20	=20	=20	=20
0r	1e	0b	1ee
.	1d	.	[1ff
=21	=21	=21	=21
1.A	1.a	0cc	2ff]
.	.	.	4ee
.	.	.	4dd
.	.	.	2.cc
2B-	2g	.	.
.	.	.	4dd
=22	=22	=22	=22
1c	1e	1.cc	1ee
1F	1f	.	1a
.	.	4b	.
.	.	4a	.
=23	=23	=23	=23
1r	1d	1g	1b-
[1F	1c	1a	1cc
=24	=24	=24	=24
1F]	0r	1cc	1a
[1G	.	[1b	[1dd
=25	=25	=25	=25
1G]	0r	2b]	1dd]
.	.	2a	.
1A	.	[1a	1cc
=26	=26	=26	=26
0E	0r	1a]	0bni
.	.	1g#i	.
=27	=27	=27	=27
2r	0r	0a	1a
2.F	.	.	.
.	.	.	2r
4G	.	.	.
2A	.	.	2a
=28	=28	=28	=28
2B-	1d	0r	2f
1G	.	.	1b-
.	1e	.	.
2A	.	.	2cc
=29	=29	=29	=29
2F	1f	0r	2a
1B-	.	.	1dd
.	1g	.	.
2c	.	.	2ee
=30	=30	=30	=30
2A	1.a	0r	2cc
2F	.	.	1ff
1c	.	.	.
.	2g	.	2ee
=31	=31	=31	=31
0d	1f	0r	2ff
.	.	.	1dd
.	1f	.	.
.	.	.	2cc
=32	=32	=32	=32
0A	0e	0a	1ee
.	.	.	1r
=33	=33	=33	=33
1r	0r	0e	0ee
1A	.	.	.
=34	=34	=34	=34
1.c	0r	1.e	1.ee
2d	.	2f	4dd
.	.	.	4cc
=35	=35	=35	=35
1e	0r	1g	1bni
2c	.	[1a	2cc
[2d	.	.	[2ff
=36	=36	=36	=36
4d]	0r	1a]	4ff]
4c	.	.	4ee
4B-	.	.	4dd
4A	.	.	4cc
1B-	.	1g	1dd
=37	=37	=37	=37
1A	0r	0a	2cc
.	.	.	2.a
2d	.	.	.
.	.	.	4g
2c	.	.	2e
=38	=38	=38	=38
2A	0r	1a	1f
1d	.	.	.
.	.	1r	1e
2c#i	.	.	.
=39	=39	=39	=39
1d	0r	0a	1d
2e	.	.	2c
[2f	.	.	[2d
=40	=40	=40	=40
4f]	0r	0a	2d]
4e	.	.	.
2c	.	.	2e
1d	.	.	2.f
.	.	.	4e
=41	=41	=41	=41
2r	0r	0e	1c
1e	.	.	.
.	.	.	1r
[2c	.	.	.
=42	=42	=42	=42
2c]	0r	1.e	1cc
4B-	.	.	.
4A	.	.	.
2G	.	.	2b-
2A	.	2f	2a
=43	=43	=43	=43
1B-	0r	1g	1dd
2A	.	[1a	2cc
2d	.	.	[2a
=44	=44	=44	=44
2c	0r	1a]	2a]
2f	.	.	1dd
1e	.	1g	.
.	.	.	2cc#i
=45	=45	=45	=45
2d	1d	0a	0dd
1f	.	.	.
.	1f	.	.
4e	.	.	.
4d	.	.	.
=46	=46	=46	=46
2.c#i	1e	1a	1r
4Bni	.	.	.
1d	1d	1r	1dd
=47	=47	=47	=47
1.A	1.a	0cc	1ee
.	.	.	1ee
2B-	2g	.	.
=48	=48	=48	=48
1c	1e	1.cc	1a
2r	1f	.	1cc
2F	.	4b	.
.	.	4a	.
=49	=49	=49	=49
2G	1d	1g	2b-
2B-	.	.	1g
1A	1c	1a	.
.	.	.	2f#i
=50	=50	=50	=50
1G	1d	1b	2g
.	.	.	2dd
2r	1e	1a	2cc
2c	.	.	[2ee
=51	=51	=51	=51
2d	1f	1a	2ee]
2f	.	.	2dd
1e	1g	1g	2b-
.	.	.	2cc
=52	=52	=52	=52
1.d	1.f	[0al	2dd
.	.	.	4cc
.	.	.	4b-
.	.	.	2.a
4c	4e	.	.
4B-	4d	.	4b-
=53	=53	=53	=53
0A	1e	0a_	2cc
.	.	.	2.dd
.	1e	.	.
.	.	.	4cc#i
.	.	.	4cc#i
.	.	.	4bni
=54	=54	=54	=54
0Dl	0dl	0a]	0ddl
==	==	==	==
*-	*-	*-	*-
!!!RDF**kern: l=long note in original notation
!!!RDF**kern: i=editorial accidental
!!!RDF**kern: V=start of tuplet marker
!!!RDF**kern: Z=end of tuplet marker
!!!ENC:	Chris Gage 04-22-2015
!!!END:	2016/02/08/
!!!EED:	Jesse Rodin
!!!EEV:	2016/02/08/
!!!ONB:	Translated from MusicXML and edited on 2016/02/08/ by Craig Sapp
!!muse2ps: C^@{COM}^i2I150v85,85,85,150Q16
